X:19045
T:Xiraldilla (CT 279)
R:Xiraldilla
C:Tradicional
S:Música Tradicional Asturiana, (C) Tello & Tito. Asturies, 2001.
S:http://pagina.de/MusTradAst <telloytito@asturies.org>
N:Xiraldilla, dictada por maría Fernández Argüelles, de diez y nueve años, de Cabañaquinta, ayuntamietno de Ayer.
O:Cabañaquinta (Ayer)
A:Asturies
Z:Cancioneru de Torner 279
M:3/8
L:1/8
Q:3/8=88
W:En el monte nací yo
W:donde nació la verbena,
W:las hojas del perejil
W:y toda la hierbbuena.
W:
W:Dame la mano,
W:paloma bella,
W:que yo no puedo
W:pasar a verla.
W:Recuerdos
W:a mi galán,
W:recuerdos,
W:que yo no puedo
W:pasar allá.
K:G
|: d>dd|ded|(B>AG-)|GFG|A2 B|c2 d|[1 (B>A)G-|G2 z :|[2 (B>A)G|
|GFG|AGG|c2 B|A2 G|GFG|AGG|c2 B|A2 G|
ddd|dAB|c2 d|BAG|B2 c|AFG|A2 B|G3-|G2 z||


